public/static/images/stages/icu-ventilated.svg

<svg width="100" height="100" viewBox="0 0 100 100" fill="none" xmlns="http://www.w3.org/2000/svg">
<path d="M6.37149 16.4451L-nan -nanL6.37149 16.4451C35.3519 12.2397 64.6488 12.2397 93.6293 16.4451L-nan -nanL93.6293 16.4451L-nan -nanL93.6293 16.4451C97.0608 37.9869 97.0608 60.1141 93.6293 81.6559L-nan -nanL93.6293 81.6559L-nan -nanL93.6293 81.6559C64.6488 85.8614 35.3519 85.8614 6.37149 81.6559L-nan -nanL6.37149 81.6559L-nan -nanL6.37149 81.6559C2.93997 60.1141 2.93997 37.9869 6.37149 16.4451L-nan -nanL6.37149 16.4451Z" fill="#94A3B8"/>
<path d="M79.747 51.3817C79.747 68.0959 65.8623 81.6454 48.7348 81.6454C31.6072 81.6454 17.7225 68.0959 17.7225 51.3817C17.7225 45.0028 17.7217 35.3548 17.7217 35.3548C17.7217 35.3548 38.1437 13.291 48.7346 13.291C60.8437 13.291 79.7468 20.6523 79.7468 20.6523C79.7468 20.6523 79.747 46.4844 79.747 51.3817Z" fill="white"/>
<path d="M73.418 50.6331C73.418 47.8367 75.8266 45.5698 78.7977 45.5698C81.7689 45.5698 84.1775 47.8367 84.1775 50.6331V55.6964C84.1775 58.4928 81.7689 60.7597 78.7977 60.7597C75.8266 60.7597 73.418 58.4928 73.418 55.6964V50.6331Z" fill="white"/>
<path d="M12.6582 50.6331C12.6582 47.8367 15.0668 45.5698 18.038 45.5698C21.0091 45.5698 23.4177 47.8367 23.4177 50.6331V55.6964C23.4177 58.4928 21.0091 60.7597 18.038 60.7597C15.0668 60.7597 12.6582 58.4928 12.6582 55.6964V50.6331Z" fill="white"/>
<path d="M86.709 10.7593H42.808C28.9532 10.7593 17.7217 22.0938 17.7217 36.0757H61.6227C75.4775 36.0757 86.709 24.7412 86.709 10.7593Z" fill="#64748B"/>
<path fill-rule="evenodd" clip-rule="evenodd" d="M26.7795 46.259C27.831 45.2898 29.4751 45.3502 30.4515 46.394C32.4629 48.5441 35.8912 48.5441 37.9026 46.394C38.8791 45.3502 40.5231 45.2898 41.5746 46.259C42.6262 47.2282 42.6871 48.8601 41.7106 49.9039C37.6433 54.2517 30.7108 54.2517 26.6435 49.9039C25.6671 48.8601 25.728 47.2282 26.7795 46.259Z" fill="#64748B"/>
<path fill-rule="evenodd" clip-rule="evenodd" d="M57.1594 46.259C58.2109 45.2898 59.8549 45.3502 60.8314 46.394C62.8428 48.5441 66.2711 48.5441 68.2825 46.394C69.259 45.3502 70.903 45.2898 71.9545 46.259C73.0061 47.2282 73.0669 48.8601 72.0905 49.9039C68.0232 54.2517 61.0907 54.2517 57.0234 49.9039C56.047 48.8601 56.1078 47.2282 57.1594 46.259Z" fill="#64748B"/>
<path d="M30.4843 69.1902L41.0682 54.8172C45.1766 49.238 53.5584 49.238 57.6668 54.8172L68.2507 69.1902C73.2219 75.9411 68.3699 85.4429 59.9514 85.4429H38.7836C30.3652 85.4429 25.5131 75.9411 30.4843 69.1902Z" fill="#55C0D8"/>
<path d="M58.8606 68.671C58.8606 74.0889 54.3268 78.4811 48.734 78.4811C43.1412 78.4811 38.6074 74.0889 38.6074 68.671C38.6074 63.253 43.1412 58.8608 48.734 58.8608C54.3268 58.8608 58.8606 63.253 58.8606 68.671Z" fill="white"/>
<path d="M42.4053 69.4092C42.4053 66.0302 45.2389 63.291 48.7344 63.291C52.2299 63.291 55.0635 66.0302 55.0635 69.4092V99.9999H42.4053V69.4092Z" fill="#D9D9D9"/>
<path d="M42.4053 69.6201H55.0635V73.4176H42.4053V69.6201Z" fill="#ADADAD"/>
<path d="M42.4053 79.1138H55.0635V82.9112H42.4053V79.1138Z" fill="#ADADAD"/>
<path d="M42.4053 88.6074H55.0635V92.4049H42.4053V88.6074Z" fill="#ADADAD"/>
</svg>

<svg width="100" height="100" fill="none" xmlns="http://www.w3.org/2000/svg"><path d="M79.747 51.382c0 16.714-13.885 30.263-31.012 30.263-17.128 0-31.012-13.55-31.012-30.263l-.001-16.027S38.144 13.29 48.735 13.29c12.109 0 31.012 7.361 31.012 7.361v30.73z" fill="#fff"/><path d="M73.418 50.633c0-2.796 2.409-5.063 5.38-5.063 2.97 0 5.38 2.267 5.38 5.063v5.063c0 2.797-2.41 5.064-5.38 5.064-2.971 0-5.38-2.267-5.38-5.064v-5.063zM12.658 50.633c0-2.796 2.409-5.063 5.38-5.063s5.38 2.267 5.38 5.063v5.063c0 2.797-2.409 5.064-5.38 5.064s-5.38-2.267-5.38-5.064v-5.063z" fill="#fff"/><path d="M86.709 10.76H42.808c-13.855 0-25.086 11.334-25.086 25.316h43.9c13.856 0 25.087-11.335 25.087-25.317z" fill="#64748B"/><path fill-rule="evenodd" clip-rule="evenodd" d="M26.78 46.259a2.612 2.612 0 0 1 3.671.135 5.11 5.11 0 0 0 7.452 0 2.612 2.612 0 0 1 3.672-.135 2.566 2.566 0 0 1 .136 3.645c-4.068 4.348-11 4.348-15.067 0a2.566 2.566 0 0 1 .136-3.645zM57.16 46.259a2.612 2.612 0 0 1 3.671.135 5.11 5.11 0 0 0 7.451 0 2.612 2.612 0 0 1 3.672-.135 2.566 2.566 0 0 1 .137 3.645c-4.068 4.348-11 4.348-15.068 0a2.566 2.566 0 0 1 .136-3.645z" fill="#64748B"/><path d="m30.484 69.19 10.584-14.373c4.109-5.579 12.49-5.579 16.599 0L68.25 69.19c4.97 6.751.119 16.253-8.3 16.253H38.784c-8.419 0-13.27-9.502-8.3-16.253z" fill="#55C0D8"/><path d="M58.86 68.671c0 5.418-4.533 9.81-10.126 9.81-5.593 0-10.127-4.392-10.127-9.81s4.534-9.81 10.127-9.81c5.593 0 10.127 4.392 10.127 9.81z" fill="#fff"/><path d="M42.405 69.41c0-3.38 2.834-6.119 6.33-6.119 3.495 0 6.328 2.74 6.328 6.118V100H42.405V69.41z" fill="#D9D9D9"/><path d="M42.405 69.62h12.658v3.798H42.405V69.62zM42.405 79.114h12.658v3.797H42.405v-3.797zM42.405 88.607h12.658v3.798H42.405v-3.798z" fill="#ADADAD"/></svg>
